resources/svg/lock-simple-duotone.svg

<svg xmlns="http://www.w3.org/2000/svg" viewBox="0 0 256 256" fill="currentColor"><g opacity="0.2"><rect x="39.99414" y="88" width="176" height="128" rx="8"/></g><path d="M207.99414,80h-36V52a44,44,0,1,0-88,0V80h-36a16.01833,16.01833,0,0,0-16,16V208a16.01833,16.01833,0,0,0,16,16h160a16.01833,16.01833,0,0,0,16-16V96A16.01833,16.01833,0,0,0,207.99414,80Zm-108-28a28,28,0,1,1,56,0V80h-56Zm108,156h-160V96h160l.00977,112Z"/></svg>

<svg xmlns="http://www.w3.org/2000/svg" viewBox="0 0 256 256" fill="currentColor"><g opacity="0.2"><rect x="40" y="88" width="176" height="128" rx="8"/></g><path d="M208,80H172V52a44,44,0,0,0-88,0V80H48A16,16,0,0,0,32,96V208a16,16,0,0,0,16,16H208a16,16,0,0,0,16-16V96A16,16,0,0,0,208,80ZM100,52a28,28,0,0,1,56,0V80H100ZM208,208H48V96H208V208Z"/></svg>
